X:18
T:Sally Kelly's Reel
S:Petrie's Third Collection of Strathspey Reels and Country Dances &c.
Z:Steve Wyrick , 7/30/05
N:Petrie's Third Collection, page 8
L:1/8
M:C
R:Reel
K:Dm
c|Ad-d^c d2df|edcd efga|fde^c d2 AF|GBAG FDD:|A|
FGAc F/F/F A2|FGAc BGGe|fde^c d2AF|GBAG FDD:|]
